public/images/sw-skills/rest_api.svg

<svg xmlns="http://www.w3.org/2000/svg" xml:space="preserve" style="fill-rule:evenodd;clip-rule:evenodd;stroke-linecap:round;stroke-linejoin:round;stroke-miterlimit:1.5" viewBox="0 0 2400 1600"><path d="M0 0h2400v1600H0z" style="fill:#ffbc89"/><text x="753.193" y="243.424" style="font-family:&quot;ArialMT&quot;,&quot;Arial&quot;,sans-serif;font-size:79.962px;fill:#ff6953" transform="translate(568.203 257.734)scale(1.57931)">GET</text><text x="699.859" y="326.002" style="font-family:&quot;ArialMT&quot;,&quot;Arial&quot;,sans-serif;font-size:79.962px;fill:#ff6953" transform="translate(568.203 257.734)scale(1.57931)">POST</text><text x="757.644" y="408.58" style="font-family:&quot;ArialMT&quot;,&quot;Arial&quot;,sans-serif;font-size:79.962px;fill:#ff6953" transform="translate(568.203 257.734)scale(1.57931)">PUT</text><text x="606.506" y="491.157" style="font-family:&quot;ArialMT&quot;,&quot;Arial&quot;,sans-serif;font-size:79.962px;fill:#ff6953" transform="translate(568.203 257.734)scale(1.57931)">DELETE</text><text x="544.114" y="243.424" style="font-family:&quot;Courier&quot;;font-size:90.967px;fill:#ff6953" transform="translate(-384.402 308.376)scale(1.38824)">/v1/api/get</text><text x="544.114" y="334.392" style="font-family:&quot;Courier&quot;;font-size:90.967px;fill:#ff6953" transform="translate(-384.402 308.376)scale(1.38824)">/v1/api/pst</text><text x="544.114" y="425.359" style="font-family:&quot;Courier&quot;;font-size:90.967px;fill:#ff6953" transform="translate(-384.402 308.376)scale(1.38824)">/v1/api/put</text><text x="544.114" y="516.326" style="font-family:&quot;Courier&quot;;font-size:90.967px;fill:#ff6953" transform="translate(-384.402 308.376)scale(1.38824)">/v1/api/del</text><path d="M1269.16 537.922v-28.19h557.81v-26.177l40.27 40.272-40.27 40.272v-26.177z" style="fill:#ff6953" transform="translate(242.795 176.35)scale(.78928)"/><path d="M1269.16 537.922v-28.19h549.12v-26.177l48.96 40.272-48.96 40.272v-26.177z" style="fill:#ff6953" transform="matrix(.64916 0 0 .78928 420.623 318.908)"/><path d="M1269.16 537.922v-28.19h517.54v-26.177l80.54 40.272-80.54 40.272v-26.177z" style="fill:#ff6953" transform="matrix(.39464 0 0 .78928 743.654 573.489)"/><path d="M1269.16 537.922v-28.19h557.81v-26.177l40.27 40.272-40.27 40.272v-26.177z" style="fill:#ff6953" transform="translate(242.795 447.577)scale(.78928)"/><path d="M2211.27 611.781c0-75.394-64.3-136.604-143.51-136.604H351.756c-79.201 0-143.502 61.21-143.502 136.604V1021.6c0 75.39 64.301 136.6 143.502 136.6H2067.76c79.21 0 143.51-61.21 143.51-136.6z" style="fill:none;stroke:#ff6953;stroke-width:26.1px" transform="matrix(.8966 0 0 .94188 115.33 30.782)"/></svg>

<?xml version="1.0" encoding="UTF-8" standalone="no"?>
<!DOCTYPE svg PUBLIC "-//W3C//DTD SVG 1.1//EN" "http://www.w3.org/Graphics/SVG/1.1/DTD/svg11.dtd">
<svg width="100%" height="100%" viewBox="0 0 2400 1600" version="1.1" xmlns="http://www.w3.org/2000/svg" xmlns:xlink="http://www.w3.org/1999/xlink" xml:space="preserve" xmlns:serif="http://www.serif.com/" style="fill-rule:evenodd;clip-rule:evenodd;stroke-linecap:round;stroke-linejoin:round;stroke-miterlimit:1.5;">
    <rect x="0" y="0" width="2400" height="1600" style="fill:rgb(255,188,137);"/>
    <g transform="matrix(0.865183,0,0,0.865183,161.781,107.854)">
        <g transform="matrix(1.82541,0,0,1.82541,469.753,173.235)">
            <text x="753.193px" y="243.424px" style="font-family:'ArialMT', 'Arial', sans-serif;font-size:79.962px;fill:rgb(255,105,83);">GET</text>
            <text x="699.859px" y="326.002px" style="font-family:'ArialMT', 'Arial', sans-serif;font-size:79.962px;fill:rgb(255,105,83);">POST</text>
            <text x="757.644px" y="408.58px" style="font-family:'ArialMT', 'Arial', sans-serif;font-size:79.962px;fill:rgb(255,105,83);">PUT</text>
            <text x="606.506px" y="491.157px" style="font-family:'ArialMT', 'Arial', sans-serif;font-size:79.962px;fill:rgb(255,105,83);">DELETE</text>
        </g>
        <g transform="matrix(1.60456,0,0,1.60456,-631.292,231.768)">
            <text x="544.114px" y="243.424px" style="font-family:'Courier';font-size:90.967px;fill:rgb(255,105,83);">/v1/api/get</text>
            <text x="544.114px" y="334.392px" style="font-family:'Courier';font-size:90.967px;fill:rgb(255,105,83);">/v1/api/pst</text>
            <text x="544.114px" y="425.359px" style="font-family:'Courier';font-size:90.967px;fill:rgb(255,105,83);">/v1/api/put</text>
            <text x="544.114px" y="516.326px" style="font-family:'Courier';font-size:90.967px;fill:rgb(255,105,83);">/v1/api/del</text>
        </g>
        <g transform="matrix(0.912264,0,0,0.912264,93.6385,79.1686)">
            <path d="M1269.16,537.922L1269.16,509.732L1826.97,509.732L1826.97,483.555L1867.24,523.827L1826.97,564.099L1826.97,537.922L1269.16,537.922Z" style="fill:rgb(255,105,83);"/>
        </g>
        <g transform="matrix(0.750317,0,0,0.912264,299.176,243.942)">
            <path d="M1269.16,537.922L1269.16,509.732L1818.28,509.732L1818.28,483.555L1867.24,523.827L1818.28,564.099L1818.28,537.922L1269.16,537.922Z" style="fill:rgb(255,105,83);"/>
        </g>
        <g transform="matrix(0.456132,0,0,0.912264,672.543,538.192)">
            <path d="M1269.16,537.922L1269.16,509.732L1786.7,509.732L1786.7,483.555L1867.24,523.827L1786.7,564.099L1786.7,537.922L1269.16,537.922Z" style="fill:rgb(255,105,83);"/>
        </g>
        <g transform="matrix(0.912264,0,0,0.912264,93.6385,392.66)">
            <path d="M1269.16,537.922L1269.16,509.732L1826.97,509.732L1826.97,483.555L1867.24,523.827L1826.97,564.099L1826.97,537.922L1269.16,537.922Z" style="fill:rgb(255,105,83);"/>
        </g>
    </g>
    <g transform="matrix(0.896599,0,0,0.941875,115.33,30.7819)">
        <path d="M2211.27,611.781C2211.27,536.387 2146.97,475.177 2067.76,475.177L351.756,475.177C272.555,475.177 208.254,536.387 208.254,611.781L208.254,1021.6C208.254,1096.99 272.555,1158.2 351.756,1158.2L2067.76,1158.2C2146.97,1158.2 2211.27,1096.99 2211.27,1021.6L2211.27,611.781Z" style="fill:none;stroke:rgb(255,105,83);stroke-width:26.1px;"/>
    </g>
</svg>
